X: 1
T: Big-Eyed Rabbit
C: Kirk Sutphin
D: Old Roots, New Branches
R: reel
P: AEAE
Z: 2020 John Chambers <jc:trillian.mit.edu> 2020-7-17
S: https://www.facebook.com/groups/Fiddletuneoftheday/
S: https://www.facebook.com/groups/Fiddletuneoftheday/photos/
M: C|
L: 1/8
K: A
EF |\
A2AA cAB2 | A3B A2A2- | ABAc BAcA | f3e f2f2- |\
fgaa afed | ce2f e2fe | cBcB AGFE |
B3c BABc |\
AcBA FEFG | A3B A2 :: A2- | AcBA FEFE |\
B3c BABc | AcBA FEFG | A3B A2 :|
